X: 10430
T: Donegal Castle
R: hornpipe
M: 4/4
K: Gmajor
|:DF|GdBd gbfa|ecAG FdcA|G2 eG F2 dF|Ggba g2 fd|
GdBd g2 fa|ecAG FdcA|G2 eG F2 dF|GdcA G2:|
K: D Major
|:BG|FAdA fdAF|GBdB gdBG|Acef gece|dcfB ABGE|
FAfA FdfA|GBgB GdgB|cBc’b a2 ge|1 d2 c2 d2:|2 d2 A2 D2||

